li/brand-xing.svg

<svg role="img" focusable="false" aria-hidden="true" xmlns="http://www.w3.org/2000/svg" viewBox="0 0 14 14" height="1em" width="1em">
  <path d="M 10.094059,1 C 9.8355589,1 9.7235589,1.1625 9.6305589,1.33 c 0,0 -3.7275,6.612 -3.851,6.8285 0.0075,0.012 2.4595,4.5115 2.4595,4.5115 0.085,0.154 0.218,0.33 0.4835,0.33 l 1.7270001,0 c 0.1055,0 0.1875,-0.039 0.2315,-0.11 0.0445,-0.0755 0.0445,-0.173 -0.0045,-0.268 L 8.2370589,8.164 c -0.002,-0.003 -0.002,-0.008 0,-0.011 L 12.069559,1.378 c 0.0475,-0.0955 0.0485,-0.1935 0.003,-0.2675 C 12.028059,1.039 11.947059,1 11.843059,1 l -1.749,0 z M 2.8240589,3.37 c -0.1055,0 -0.1925,0.037 -0.2365,0.108 -0.045,0.0745 -0.039,0.1695 0.01,0.2655 l 1.17,2.025 c 0.002,0.005 0.002,0.008 0,0.0105 l -1.8375,3.2465 c -0.0495,0.094 -0.0465,0.1905 0,0.2645 0.0425,0.071 0.1195,0.117 0.225,0.117 l 1.7305,0 c 0.259,0 0.383,-0.174 0.4725,-0.3335 l 1.867,-3.3045 -1.189,-2.0775 c -0.086,-0.1575 -0.217,-0.3295 -0.481,-0.3295 l -1.731,0 0,0.008 z"/>
</svg>

<svg aria-hidden="true" xmlns="http://www.w3.org/2000/svg" viewBox="0 0 14 14" height="1em" width="1em">
  <path d="M10.094 1c-.258 0-.37.163-.463.33L5.78 8.159l2.46 4.511c.084.154.217.33.483.33h1.727c.105 0 .187-.039.231-.11.045-.075.045-.173-.004-.268l-2.44-4.458a.01.01 0 0 1 0-.011l3.833-6.775c.047-.095.048-.193.003-.267-.045-.072-.126-.111-.23-.111h-1.749zm-7.27 2.37c-.105 0-.192.037-.236.108-.045.074-.04.17.01.266l1.17 2.024c.002.005.002.008 0 .011L1.93 9.026a.26.26 0 0 0 0 .264.25.25 0 0 0 .225.117h1.73c.26 0 .384-.174.473-.333l1.867-3.305-1.189-2.077c-.086-.158-.217-.33-.48-.33H2.823v.008z"/>
</svg>
